svgs/light/trash-can-clock.svg

<svg xmlns="http://www.w3.org/2000/svg" viewBox="0 0 576 512"><!--! Font Awesome Pro 6.4.0 by @fontawesome - https://fontawesome.com License - https://fontawesome.com/license (Commercial License) Copyright 2023 Fonticons, Inc. --><path d="M164.2 39.5L148.9 64H299.1L283.8 39.5c-2.9-4.7-8.1-7.5-13.6-7.5H177.7c-5.5 0-10.6 2.8-13.6 7.5zM311 22.6L336.9 64H384h32 16c8.8 0 16 7.2 16 16s-7.2 16-16 16H416v96.7c-11 1-21.7 3-32 5.9V96H64V432c0 26.5 21.5 48 48 48H296.2c10 12.1 21.7 22.9 34.6 32H112c-44.2 0-80-35.8-80-80V96H16C7.2 96 0 88.8 0 80s7.2-16 16-16H32 64h47.1L137 22.6C145.8 8.5 161.2 0 177.7 0h92.5c16.6 0 31.9 8.5 40.7 22.6zM336 176v44.5c-11.7 7.6-22.4 16.6-32 26.7V176c0-8.8 7.2-16 16-16s16 7.2 16 16zm-192 0V400c0 8.8-7.2 16-16 16s-16-7.2-16-16V176c0-8.8 7.2-16 16-16s16 7.2 16 16zm96 0V400c0 8.8-7.2 16-16 16s-16-7.2-16-16V176c0-8.8 7.2-16 16-16s16 7.2 16 16zM432 480a112 112 0 1 0 0-224 112 112 0 1 0 0 224zm0-256a144 144 0 1 1 0 288 144 144 0 1 1 0-288zm0 64c8.8 0 16 7.2 16 16v48h32c8.8 0 16 7.2 16 16s-7.2 16-16 16H432c-8.8 0-16-7.2-16-16V304c0-8.8 7.2-16 16-16z"/></svg>

<svg xmlns="http://www.w3.org/2000/svg" viewBox="0 0 576 512"><!--! Font Awesome Pro 6.3.0 by @fontawesome - https://fontawesome.com License - https://fontawesome.com/license (Commercial License) Copyright 2023 Fonticons, Inc. --><path d="M310.1 22.56L336.9 64H432C440.8 64 448 71.16 448 80C448 88.84 440.8 96 432 96H416V192.7C405 193.7 394.3 195.7 384 198.6V96H64V432C64 458.5 85.49 480 112 480H296.2C306.3 492.1 317.9 502.9 330.8 512H112C67.82 512 32 476.2 32 432V96H16C7.164 96 0 88.84 0 80C0 71.16 7.164 64 16 64H111.1L137 22.56C145.8 8.526 161.2 0 177.7 0H270.3C286.8 0 302.2 8.526 310.1 22.56V22.56zM148.9 64H299.1L283.8 39.52C280.9 34.84 275.8 32 270.3 32H177.7C172.2 32 167.1 34.84 164.2 39.52L148.9 64zM336 176V220.5C324.3 228.1 313.6 237.1 304 247.2V176C304 167.2 311.2 160 320 160C328.8 160 336 167.2 336 176V176zM144 400C144 408.8 136.8 416 128 416C119.2 416 112 408.8 112 400V176C112 167.2 119.2 160 128 160C136.8 160 144 167.2 144 176V400zM240 400C240 408.8 232.8 416 224 416C215.2 416 208 408.8 208 400V176C208 167.2 215.2 160 224 160C232.8 160 240 167.2 240 176V400zM431.1 288C440.8 288 447.1 295.2 447.1 304V352H480C488.8 352 496 359.2 496 368C496 376.8 488.8 384 480 384H431.1C423.2 384 415.1 376.8 415.1 368V304C415.1 295.2 423.2 288 431.1 288V288zM288 368C288 288.5 352.5 224 432 224C511.5 224 576 288.5 576 368C576 447.5 511.5 512 432 512C352.5 512 288 447.5 288 368zM432 480C493.9 480 544 429.9 544 368C544 306.1 493.9 256 432 256C370.1 256 320 306.1 320 368C320 429.9 370.1 480 432 480z"/></svg>
